X:1
T:[ID 6-56]
T:[ID 6-56]
T:Bezeichnung standardisiert: Menuett Menuet 10.
T:Urheber unbekannt Erstbeleg: 1775 (Datum in der schriftlichen Quelle) Datum in der hier transkribierten schriftlichen Quelle: 1776 - 1791
C:Urheber unbekannt
C:Erstbeleg: 1775 (Datum in der schriftlichen Quelle)
C:Datum in der hier transkribierten schriftlichen Quelle: 1776 - 1791
L:1/8
M:3/4
K:A
V:1 treble 
V:1
 Ac e2 e2 | e2 cAdB | e2 cAdB | e4 f2 | geaf^dB | geaf^dB | g2 fe^df | e6 :: e4 fc | d2 fd B2 | %10
 c2 ec A2 | GABG E2 | cAdBGE | cAdBGE | c2 BAGB | A6 :| %16

